assets/Cooked rice/Flat/cooked_rice_flat.svg

<svg width="32" height="32" viewBox="0 0 32 32" fill="none" xmlns="http://www.w3.org/2000/svg">
<path d="M18.6498 30.0076H13.2598C7.04977 30.0076 2.00977 24.9676 2.00977 18.7576V13.4976H29.8998V18.7576C29.8998 24.9676 24.8598 30.0076 18.6498 30.0076Z" fill="#F8312F"/>
<path d="M21.92 7.72758C25.1 7.72758 27.69 10.3176 27.69 13.4976C27.69 16.6776 25.1 19.2676 21.92 19.2676H9.98C6.8 19.2676 4.21 16.6776 4.21 13.4976C4.21 10.3176 6.8 7.72758 9.98 7.72758H21.92ZM21.92 5.51758H9.98C5.57 5.51758 2 9.08758 2 13.4976C2 17.9076 5.57 21.4776 9.98 21.4776H21.91C26.32 21.4776 29.89 17.9076 29.89 13.4976C29.9 9.09758 26.32 5.51758 21.92 5.51758Z" fill="#CA0B4A"/>
<path d="M4.23402 12.2826L4.21619 12.114C4.19584 11.9215 4.16405 11.7243 4.12779 11.5011L4.11699 11.4348C4.0288 10.8953 3.90758 10.1537 4.1118 9.43408C4.14915 9.29885 4.18173 9.17719 4.21108 9.06754C4.34451 8.56918 4.41149 8.31901 4.55859 8.17191L4.55737 8.16428C4.7045 7.9756 4.82585 7.80733 4.92378 7.63792C5.08126 7.36443 5.20628 7.04717 5.36272 6.64313L5.3892 6.57461C5.61437 5.99147 5.92411 5.1893 6.53285 4.58056C7.1327 3.98071 7.92013 3.67147 8.49092 3.44731L8.55775 3.42104C8.96977 3.25881 9.28669 3.13144 9.55546 2.97018L9.56253 2.96593L9.56967 2.96181C9.83004 2.81137 10.0877 2.60562 10.4208 2.33598L10.4771 2.29032C10.9646 1.89494 11.6418 1.34576 12.4916 1.12161C13.3072 0.900589 14.1477 1.03178 14.7592 1.12722L14.8342 1.13891C15.2675 1.20611 15.6134 1.25767 15.94 1.25767C16.2665 1.25767 16.6124 1.20611 17.0457 1.13891L17.1207 1.12722C17.7322 1.03178 18.5727 0.900587 19.3883 1.12161C20.2381 1.34576 20.9153 1.89494 21.4028 2.29032L21.4591 2.33599C21.792 2.60541 22.0495 2.81106 22.3096 2.96146C22.5831 3.11896 22.9004 3.24399 23.3045 3.40044L23.373 3.42692C23.9562 3.65209 24.7583 3.96183 25.3671 4.57057C25.9739 5.17741 26.2835 5.97997 26.5075 6.56065L26.534 6.62935C26.692 7.03772 26.8169 7.35457 26.9741 7.62439L26.9758 7.62739C27.0927 7.82961 27.2429 8.03019 27.4305 8.26575L27.4297 8.26956C27.6884 8.65304 27.6966 8.68535 27.7855 9.03557C27.8108 9.13486 27.8425 9.25969 27.8882 9.42532C28.0924 10.1449 27.9712 10.8865 27.883 11.426L27.8722 11.4922C27.8355 11.7185 27.8033 11.918 27.783 12.1127L27.7667 12.2694C27.6328 15.4505 24.8798 18 21.5163 18H10.4838C7.12499 18 4.37496 15.4575 4.23402 12.2826Z" fill="#BEBEBE"/>
<path d="M27.8106 12.7387C27.7716 12.9905 27.7323 13.2437 27.7072 13.4961H27.6901V13.4975C27.6901 16.6775 25.1001 19.2675 21.9201 19.2675H9.98012C6.80012 19.2675 4.21012 16.6775 4.21012 13.4975L4.21012 13.4961H4.1919C4.16675 13.247 4.12801 12.9972 4.08948 12.7487C3.98613 12.0822 3.88428 11.4254 4.05005 10.8176C4.21794 10.1772 4.64875 9.64497 5.07562 9.11764C5.33524 8.79692 5.59339 8.47801 5.79005 8.13765C5.9927 7.78587 6.14418 7.39463 6.29536 7.00416C6.53957 6.37342 6.78299 5.7447 7.24005 5.28765C7.69038 4.83732 8.30736 4.59437 8.92422 4.35148C9.32101 4.19524 9.71775 4.03903 10.07 3.82765C10.4104 3.63099 10.7293 3.37283 11.05 3.11322C11.5774 2.68635 12.1096 2.25554 12.75 2.08765C13.3578 1.92188 14.0146 2.02373 14.6811 2.12708C15.1002 2.19207 15.5231 2.25765 15.94 2.25765C16.357 2.25765 16.7799 2.19207 17.199 2.12708C17.8655 2.02373 18.5223 1.92188 19.13 2.08765C19.7705 2.25554 20.3027 2.68635 20.8301 3.11322C21.1508 3.37283 21.4697 3.63099 21.81 3.82765C22.1618 4.0303 22.5531 4.18178 22.9435 4.33296C23.5743 4.57717 24.203 4.82059 24.66 5.27765C25.1151 5.73266 25.3584 6.3616 25.6015 6.9901C25.7537 7.38373 25.9059 7.77719 26.11 8.12765C26.3067 8.46801 26.5649 8.78692 26.8245 9.10764C27.2513 9.63497 27.6822 10.1672 27.85 10.8076C28.0158 11.4154 27.914 12.0722 27.8106 12.7387Z" fill="#F4F4F4"/>
<path d="M15.05 4.47759L16 6.11759C16.21 6.48759 16.09 6.94759 15.72 7.15759C15.35 7.36759 14.89 7.23759 14.68 6.87759L13.73 5.23759C13.52 4.86759 13.65 4.40759 14.01 4.19759C14.38 3.98759 14.84 4.11759 15.05 4.47759Z" fill="#BEBEBE"/>
<path d="M19.4 7.92769L19.75 6.06769C19.83 5.65769 20.23 5.38769 20.64 5.45769C21.06 5.53769 21.33 5.93769 21.25 6.34769L20.9 8.20769C20.82 8.62769 20.42 8.89769 20.01 8.81769C19.59 8.73769 19.32 8.33769 19.4 7.92769Z" fill="#BEBEBE"/>
<path d="M12.92 12.6376L12.15 10.9076C11.98 10.5176 12.15 10.0776 12.53 9.90762C12.91 9.73762 13.36 9.90762 13.53 10.2876L14.3 12.0176C14.47 12.3976 14.3 12.8476 13.92 13.0176C13.54 13.1876 13.09 13.0176 12.92 12.6376Z" fill="#BEBEBE"/>
<path d="M9.22997 16.9977L9.57997 15.1377C9.64997 14.7177 10.05 14.4477 10.47 14.5277C10.89 14.6077 11.16 15.0077 11.08 15.4177L10.73 17.2777C10.65 17.6977 10.25 17.9677 9.83997 17.8877C9.41997 17.8077 9.14997 17.4077 9.22997 16.9977Z" fill="#BEBEBE"/>
<path d="M7.81997 11.4576L6.13997 12.3376C5.76997 12.5276 5.61997 12.9876 5.81997 13.3576C6.00997 13.7276 6.46997 13.8776 6.83997 13.6776L8.51997 12.7976C8.88997 12.6076 9.03997 12.1476 8.83997 11.7776C8.64997 11.4076 8.18997 11.2676 7.81997 11.4576Z" fill="#BEBEBE"/>
<path d="M9.03997 6.36759L7.90997 7.88759C7.65997 8.22759 7.72997 8.69759 8.06997 8.94759C8.40997 9.19759 8.87997 9.12759 9.12997 8.78759L10.26 7.26759C10.51 6.92759 10.44 6.45759 10.1 6.20759C9.76997 5.95759 9.28997 6.02759 9.03997 6.36759Z" fill="#BEBEBE"/>
<path d="M14.93 16.5676L16.06 15.0476C16.31 14.7176 16.78 14.6476 17.12 14.8876C17.46 15.1376 17.53 15.6076 17.28 15.9476L16.15 17.4676C15.9 17.8076 15.43 17.8776 15.09 17.6276C14.75 17.3776 14.68 16.9076 14.93 16.5676Z" fill="#BEBEBE"/>
<path d="M23.52 11.0076L24.75 12.4476C25.02 12.7676 25.5 12.8076 25.82 12.5376C26.14 12.2676 26.18 11.7876 25.91 11.4676L24.68 10.0276C24.41 9.7076 23.93 9.6676 23.61 9.9376C23.29 10.2176 23.25 10.6876 23.52 11.0076Z" fill="#BEBEBE"/>
<path d="M24.04 16.5476L23.09 14.9076C22.88 14.5476 22.42 14.4176 22.05 14.6276C21.69 14.8376 21.56 15.2976 21.77 15.6676L22.72 17.3076C22.93 17.6676 23.39 17.7976 23.76 17.5876C24.12 17.3776 24.25 16.9176 24.04 16.5476Z" fill="#BEBEBE"/>
<path d="M18.48 10.5476L20.22 11.2976C20.6 11.4576 20.78 11.9076 20.62 12.2976C20.45 12.6876 20 12.8676 19.62 12.6976L17.88 11.9476C17.49 11.7776 17.31 11.3276 17.48 10.9476C17.65 10.5576 18.1 10.3776 18.48 10.5476Z" fill="#BEBEBE"/>
</svg>

<svg xmlns="http://www.w3.org/2000/svg" width="32" height="32" fill="none"><path fill="#F8312F" d="M18.65 30.008h-5.39c-6.21 0-11.25-5.04-11.25-11.25v-5.26H29.9v5.26c0 6.21-5.04 11.25-11.25 11.25Z"/><path fill="#CA0B4A" d="M21.92 7.728c3.18 0 5.77 2.59 5.77 5.77 0 3.18-2.59 5.77-5.77 5.77H9.98c-3.18 0-5.77-2.59-5.77-5.77 0-3.18 2.59-5.77 5.77-5.77h11.94Zm0-2.21H9.98c-4.41 0-7.98 3.57-7.98 7.98s3.57 7.98 7.98 7.98h11.93c4.41 0 7.98-3.57 7.98-7.98.01-4.4-3.57-7.98-7.97-7.98Z"/><path fill="#BEBEBE" d="m4.234 12.283-.018-.169c-.02-.193-.052-.39-.088-.613l-.011-.066c-.088-.54-.21-1.281-.005-2l.1-.367c.133-.499.2-.749.347-.896l-.002-.008c.147-.188.269-.357.367-.526.157-.274.282-.59.439-.995l.026-.068c.225-.584.535-1.386 1.144-1.994.6-.6 1.387-.91 1.958-1.134l.067-.026c.412-.162.729-.29.997-.45l.008-.005.007-.004c.26-.15.518-.356.85-.626l.057-.046c.488-.395 1.165-.944 2.015-1.168.815-.221 1.656-.09 2.267.005l.075.012c.434.067.78.119 1.106.119.327 0 .672-.052 1.106-.12l.075-.01c.611-.096 1.452-.227 2.267-.006.85.224 1.527.773 2.015 1.168l.056.046c.333.27.59.475.85.625.274.158.591.283.995.44l.069.026c.583.225 1.385.535 1.994 1.144.607.606.916 1.409 1.14 1.99l.027.068c.158.409.283.726.44.995l.002.003c.117.203.267.403.454.639v.004c.258.383.267.415.355.766.026.099.058.224.103.39.204.719.083 1.46-.005 2l-.01.066c-.038.226-.07.426-.09.62l-.016.157C27.633 15.45 24.88 18 21.517 18H10.483c-3.359 0-6.109-2.543-6.25-5.717Z"/><path fill="#F4F4F4" d="M27.81 12.739c-.038.252-.078.505-.103.757h-.017v.002c0 3.18-2.59 5.77-5.77 5.77H9.98c-3.18 0-5.77-2.59-5.77-5.77v-.002h-.018c-.025-.249-.064-.499-.103-.747-.103-.667-.205-1.324-.039-1.931.168-.64.599-1.173 1.026-1.7.26-.321.517-.64.714-.98.203-.352.354-.743.505-1.134.245-.63.488-1.26.945-1.716.45-.45 1.067-.694 1.684-.937.397-.156.794-.312 1.146-.523.34-.197.66-.455.98-.715.527-.427 1.06-.857 1.7-1.025.608-.166 1.265-.064 1.931.04.42.064.842.13 1.259.13.417 0 .84-.066 1.259-.13.666-.104 1.323-.206 1.931-.04.64.168 1.173.598 1.7 1.025.32.26.64.518.98.715.352.202.743.354 1.134.505.63.244 1.259.488 1.716.945.455.455.698 1.084.942 1.712.152.394.304.787.508 1.138.197.34.455.659.715.98.426.527.857 1.06 1.025 1.7.166.607.064 1.264-.04 1.93Z"/><path fill="#BEBEBE" d="m15.05 4.478.95 1.64c.21.37.09.83-.28 1.04-.37.21-.83.08-1.04-.28l-.95-1.64a.764.764 0 0 1 .28-1.04c.37-.21.83-.08 1.04.28ZM19.4 7.928l.35-1.86c.08-.41.48-.68.89-.61.42.08.69.48.61.89l-.35 1.86a.76.76 0 0 1-.89.61.76.76 0 0 1-.61-.89ZM12.92 12.638l-.77-1.73c-.17-.39 0-.83.38-1 .38-.17.83 0 1 .38l.77 1.73c.17.38 0 .83-.38 1-.38.17-.83 0-1-.38ZM9.23 16.998l.35-1.86a.75.75 0 0 1 .89-.61c.42.08.69.48.61.89l-.35 1.86a.76.76 0 0 1-.89.61.76.76 0 0 1-.61-.89ZM7.82 11.458l-1.68.88a.75.75 0 0 0-.32 1.02c.19.37.65.52 1.02.32l1.68-.88a.75.75 0 0 0 .32-1.02.758.758 0 0 0-1.02-.32ZM9.04 6.368l-1.13 1.52c-.25.34-.18.81.16 1.06.34.25.81.18 1.06-.16l1.13-1.52c.25-.34.18-.81-.16-1.06a.755.755 0 0 0-1.06.16ZM14.93 16.568l1.13-1.52c.25-.33.72-.4 1.06-.16.34.25.41.72.16 1.06l-1.13 1.52c-.25.34-.72.41-1.06.16a.754.754 0 0 1-.16-1.06ZM23.52 11.008l1.23 1.44a.76.76 0 0 0 1.16-.98l-1.23-1.44a.76.76 0 0 0-1.16.98ZM24.04 16.548l-.95-1.64a.764.764 0 0 0-1.04-.28c-.36.21-.49.67-.28 1.04l.95 1.64c.21.36.67.49 1.04.28.36-.21.49-.67.28-1.04ZM18.48 10.548l1.74.75c.38.16.56.61.4 1-.17.39-.62.57-1 .4l-1.74-.75a.759.759 0 0 1-.4-1c.17-.39.62-.57 1-.4Z"/></svg>
